images/icon-star.svg

<svg width="140" height="37" xmlns="http://www.w3.org/2000/svg">
 <defs>
  <clipPath id="clip0_119539_79">
   <rect id="svg_1" x="0" y="10" fill="white" height="17" width="18"/>
  </clipPath>
  <clipPath id="clip1_119539_79">
   <rect id="svg_2" x="24" y="10" fill="white" height="17" width="18"/>
  </clipPath>
  <clipPath id="clip2_119539_79">
   <rect id="svg_3" x="48" y="10" fill="white" height="17" width="18"/>
  </clipPath>
  <clipPath id="clip3_119539_79">
   <rect id="svg_4" x="72" y="10" fill="white" height="17" width="18"/>
  </clipPath>
 </defs>
 <g>
  <title>background</title>
  <rect fill="none" id="canvas_background" height="402" width="582" y="-1" x="-1"/>
 </g>
 <g>
  <title>Layer 1</title>
  <g id="svg_5" clip-path="url(#clip0_119539_79)">
   <path id="svg_6" fill="#83B3D3" d="m9,10l2.1,6.5l6.9,0l-5.6,4l2.2,6.5l-5.6,-4l-5.6,4l2.2,-6.5l-5.6,-4l6.9,0l2.1,-6.5z"/>
  </g>
  <g id="svg_7" clip-path="url(#clip1_119539_79)">
   <path id="svg_8" fill="#83B3D3" d="m33,10l2.1,6.5l6.9,0l-5.6,4l2.2,6.5l-5.6,-4l-5.6,4l2.2,-6.5l-5.6,-4l6.9,0l2.1,-6.5z"/>
  </g>
  <g id="svg_9" clip-path="url(#clip2_119539_79)">
   <path id="svg_10" fill="#83B3D3" d="m57,10l2.1,6.5l6.9,0l-5.6,4l2.2,6.5l-5.6,-4l-5.6,4l2.2,-6.5l-5.6,-4l6.9,0l2.1,-6.5z"/>
  </g>
  <path id="svg_12" fill="#83B3D3" d="m81,10l2.1,6.5l6.9,0l-5.6,4l2.2,6.5l-5.6,-4l-5.6,4l2.2,-6.5l-5.6,-4l6.9,0l2.1,-6.5z"/>
  <path id="svg_13" fill="#83B3D3" d="m104.281595,10l2.1,6.5l6.9,0l-5.6,4l2.2,6.5l-5.6,-4l-5.6,4l2.2,-6.5l-5.6,-4l6.9,0l2.1,-6.5z"/>
 </g>
</svg>

<svg width="140" height="37" viewBox="0 0 140 37" fill="none" xmlns="http://www.w3.org/2000/svg">
<g clip-path="url(#clip0_119539_79)">
<path d="M9 10L11.1 16.5H18L12.4 20.5L14.6 27L9 23L3.4 27L5.6 20.5L0 16.5H6.9L9 10Z" fill="#83B3D3"/>
</g>
<g clip-path="url(#clip1_119539_79)">
<path d="M33 10L35.1 16.5H42L36.4 20.5L38.6 27L33 23L27.4 27L29.6 20.5L24 16.5H30.9L33 10Z" fill="#83B3D3"/>
</g>
<g clip-path="url(#clip2_119539_79)">
<path d="M57 10L59.1 16.5H66L60.4 20.5L62.6 27L57 23L51.4 27L53.6 20.5L48 16.5H54.9L57 10Z" fill="#83B3D3"/>
</g>
<g clip-path="url(#clip3_119539_79)">
<path d="M81 10L83.1 16.5H90L84.4 20.5L86.6 27L81 23L75.4 27L77.6 20.5L72 16.5H78.9L81 10Z" fill="#83B3D3"/>
</g>
<defs>
<clipPath id="clip0_119539_79">
<rect width="18" height="17" fill="white" transform="translate(0 10)"/>
</clipPath>
<clipPath id="clip1_119539_79">
<rect width="18" height="17" fill="white" transform="translate(24 10)"/>
</clipPath>
<clipPath id="clip2_119539_79">
<rect width="18" height="17" fill="white" transform="translate(48 10)"/>
</clipPath>
<clipPath id="clip3_119539_79">
<rect width="18" height="17" fill="white" transform="translate(72 10)"/>
</clipPath>
</defs>
</svg>
